X:1228
T:Skänklåt efter Per Köpman
R:Skänklåt
Z:Klas Krantz, 2006
S:efter Per Köpman
L:1/16
M:2/4
K:D
A2 |: "D"dcde fefg | a2ba agfe | d2eg ~f2ed | "A7"cdec A2>A2 |
"D"dcde fefg | a2ba agfe | d2eg ~f2ed |1 "A7"cdec "D"d2>A2 :|2 "A7"cdec "D"d4 |
|:"D"A2BA "G"G2BA | "D"F2AF D2D2 | A2de fd"A7"ec | "D"d2fd "A7"c2A2 |
"D"A2BA "G"G2BA | "D"F2AF D2D2 | A2d/c/d/e/ fd"A7"ec | "D"{c}d2d2d4 :|]

(:musicend:)

(:music:)
